packages/dnb-eufemia/assets/icons/wallet.svg

<svg width="16" height="16" viewBox="0 0 16 16" fill="none" xmlns="http://www.w3.org/2000/svg">
<path d="M14.0667 7.53333C14.0667 6.74583 14.0667 6.00872 14.0667 5.35556C14.0667 4.66827 13.5095 4.11111 12.8222 4.11111H12.2M14.0667 7.53333H11.6444C11.0922 7.53333 10.6444 7.98105 10.6444 8.53333V9.64444C10.6444 10.1967 11.0922 10.6444 11.6444 10.6444H14.0667M14.0667 7.53333V7.53333C14.5821 7.53333 15 7.9512 15 8.46667V9.71111C15 10.2266 14.5821 10.6444 14.0667 10.6444V10.6444M14.0667 10.6444C14.0667 11.5821 14.0667 12.5298 14.0667 13.4444C14.0667 14.1317 13.5095 14.6889 12.8222 14.6889H2.24444C1.55716 14.6889 1 14.1317 1 13.4444V5.35556C1 4.66827 1.55716 4.11111 2.24444 4.11111H4.11111M4.11111 4.11111L10.2338 1.44909C10.7833 1.21017 11.4181 1.50486 11.5903 2.07881L12.2 4.11111M4.11111 4.11111H12.2" stroke="black" stroke-width="1.5"/>
</svg>

<svg width="16" height="16" viewBox="0 0 16 16" fill="none" xmlns="http://www.w3.org/2000/svg"><path d="M14.067 7.533V5.355c0-.687-.558-1.244-1.245-1.244H12.2m1.867 3.422h-2.423a1 1 0 0 0-1 1v1.111a1 1 0 0 0 1 1h2.423m0-3.11c.515 0 .933.417.933.933V9.71a.933.933 0 0 1-.933.933m0 0v2.8c0 .688-.558 1.245-1.245 1.245H2.244A1.244 1.244 0 0 1 1 13.444V5.356c0-.688.557-1.245 1.244-1.245h1.867m0 0 5.907-3.063a1 1 0 0 1 1.416.592l.766 2.47m-8.089 0H12.2" stroke="#000" stroke-width="1.5"/></svg>
